X:003 
T:Alexander's March
S:P.Enright MS
F:file ID: cre.5/003alex_m
B:CRE5.005 (MÃÂÃÂÃÂÃÂ¡irseÃÂÃÂÃÂÃÂ¡il Alasdroim)
M:6/8
%%Q:160
R:jig
K:Em
egg eaa|egg ged|egg eaa|bag e2d:|
BAA BGG|BAg ged|BAA BGG|BAB ef/e/d:|

%%%

